src/assets/quotes.svg

<svg width="48" height="36" viewBox="0 0 48 36" fill="none" xmlns="http://www.w3.org/2000/svg">
<path d="M38.2065 35.51C35.4371 35.51 33.0698 34.5273 31.1045 32.562C29.2285 30.5073 28.2905 28.006 28.2905 25.058C28.2905 19.5193 29.8985 14.5613 33.1145 10.184C36.4198 5.71733 40.2165 2.36733 44.5045 0.133998L45.0405 0C45.7551 0 46.1125 0.357331 46.1125 1.07199C46.1125 1.34 45.9785 1.608 45.7105 1.876C43.5665 3.752 41.9138 5.67266 40.7525 7.638C39.5911 9.514 39.0105 11.2113 39.0105 12.73C39.0105 14.338 39.8591 15.678 41.5565 16.75C43.6111 17.9113 45.1745 19.1173 46.2465 20.368C47.4078 21.6187 47.9885 23.3607 47.9885 25.594C47.9885 28.3633 47.0058 30.7307 45.0405 32.696C43.1645 34.572 40.8865 35.51 38.2065 35.51ZM10.2005 35.51C7.52046 35.51 5.19779 34.5273 3.23246 32.562C1.35646 30.5073 0.418457 28.006 0.418457 25.058C0.418457 19.5193 2.07112 14.5613 5.37646 10.184C8.68179 5.71733 12.3891 2.412 16.4985 0.267997C16.6771 0.178664 16.9005 0.133998 17.1685 0.133998C17.7938 0.133998 18.1065 0.491332 18.1065 1.206C18.1065 1.474 18.0171 1.69733 17.8385 1.876C15.6945 3.84133 14.0418 5.80666 12.8805 7.772C11.7191 9.648 11.1385 11.3007 11.1385 12.73C11.1385 14.7847 11.9871 16.1247 13.6845 16.75C15.6498 17.7327 17.1685 18.894 18.2405 20.234C19.4018 21.574 19.9825 23.3607 19.9825 25.594C19.9825 28.3633 19.0445 30.7307 17.1685 32.696C15.2925 34.572 12.9698 35.51 10.2005 35.51Z" fill="#2E4049"/>
</svg>

<svg width="48" height="36" fill="none" xmlns="http://www.w3.org/2000/svg"><path d="M38.206 35.51c-2.769 0-5.136-.983-7.102-2.948-1.875-2.055-2.813-4.556-2.813-7.504 0-5.539 1.607-10.497 4.823-14.874 3.306-4.467 7.103-7.817 11.39-10.05L45.041 0c.714 0 1.072.357 1.072 1.072 0 .268-.135.536-.402.804-2.145 1.876-3.797 3.797-4.959 5.762-1.16 1.876-1.742 3.573-1.742 5.092 0 1.608.85 2.948 2.547 4.02 2.054 1.161 3.617 2.367 4.69 3.618 1.16 1.25 1.742 2.993 1.742 5.226 0 2.77-.983 5.137-2.948 7.102-1.877 1.876-4.154 2.814-6.834 2.814Zm-28.006 0c-2.68 0-5.002-.983-6.968-2.948C1.356 30.507.418 28.006.418 25.058c0-5.539 1.653-10.497 4.958-14.874C8.682 5.717 12.39 2.412 16.498.268c.18-.09.402-.134.67-.134.626 0 .939.357.939 1.072a.91.91 0 0 1-.268.67c-2.144 1.965-3.797 3.93-4.958 5.896-1.162 1.876-1.742 3.529-1.742 4.958 0 2.055.848 3.395 2.546 4.02 1.965.983 3.484 2.144 4.556 3.484 1.16 1.34 1.742 3.127 1.742 5.36 0 2.77-.939 5.137-2.814 7.102-1.877 1.876-4.2 2.814-6.969 2.814Z" fill="#2E4049"/></svg>
